icons/Tick-2.svg

<svg width="24" height="24" viewBox="0 0 24 24" fill="none" xmlns="http://www.w3.org/2000/svg">
<g id="Tick-2">
<path id="Vector" d="M20.65 10.94L18.87 9.16V6.63C18.87 6.23218 18.712 5.85065 18.4307 5.56934C18.1494 5.28804 17.7678 5.13 17.37 5.13H14.84L13.06 3.35C12.9214 3.20971 12.7564 3.09833 12.5744 3.02231C12.3924 2.94629 12.1972 2.90714 12 2.90714C11.8028 2.90714 11.6076 2.94629 11.4256 3.02231C11.2436 3.09833 11.0786 3.20971 10.94 3.35L9.16 5.13H6.63C6.23217 5.13 5.85064 5.28804 5.56934 5.56934C5.28803 5.85065 5.13 6.23218 5.13 6.63V9.16L3.35 10.94C3.20971 11.0786 3.09832 11.2436 3.0223 11.4256C2.94628 11.6076 2.90714 11.8028 2.90714 12C2.90714 12.1972 2.94628 12.3924 3.0223 12.5744C3.09832 12.7564 3.20971 12.9214 3.35 13.06L5.13 14.84V17.37C5.13 17.7678 5.28803 18.1494 5.56934 18.4307C5.85064 18.712 6.23217 18.87 6.63 18.87H9.16L10.94 20.65C11.0786 20.7903 11.2436 20.9017 11.4256 20.9777C11.6076 21.0537 11.8028 21.0929 12 21.0929C12.1972 21.0929 12.3924 21.0537 12.5744 20.9777C12.7564 20.9017 12.9214 20.7903 13.06 20.65L14.84 18.87H17.37C17.7678 18.87 18.1494 18.712 18.4307 18.4307C18.712 18.1494 18.87 17.7678 18.87 17.37V14.84L20.65 13.06C20.7903 12.9214 20.9017 12.7564 20.9777 12.5744C21.0537 12.3924 21.0929 12.1972 21.0929 12C21.0929 11.8028 21.0537 11.6076 20.9777 11.4256C20.9017 11.2436 20.7903 11.0786 20.65 10.94Z" stroke="#00153F" stroke-width="1.5" stroke-linejoin="round"/>
<path id="Vector_2" d="M8.41 12.22L10.66 14.47L15.59 9.53" stroke="#00153F" stroke-width="1.5" stroke-linecap="round" stroke-linejoin="round"/>
</g>
</svg>

<svg xmlns="http://www.w3.org/2000/svg" fill="none" viewBox="0 0 24 24"><g stroke="currentColor" stroke-linejoin="round" stroke-width="1.5"><path d="m20.65 10.94-1.78-1.78V6.63a1.5 1.5 0 0 0-1.5-1.5h-2.53l-1.78-1.78a1.49 1.49 0 0 0-2.12 0L9.16 5.13H6.63a1.5 1.5 0 0 0-1.5 1.5v2.53l-1.78 1.78a1.49 1.49 0 0 0 0 2.12l1.78 1.78v2.53a1.5 1.5 0 0 0 1.5 1.5h2.53l1.78 1.78a1.49 1.49 0 0 0 2.12 0l1.78-1.78h2.53a1.5 1.5 0 0 0 1.5-1.5v-2.53l1.78-1.78a1.49 1.49 0 0 0 0-2.12Z"/><path stroke-linecap="round" d="m8.41 12.22 2.25 2.25 4.93-4.94"/></g></svg>
